ubuntu-mono-dark/status/16/weather-clouds.svg

<?xml version="1.0" encoding="UTF-8" standalone="no"?>
<!-- Created with Inkscape (http://www.inkscape.org/) -->

<svg
   xmlns:dc="http://purl.org/dc/elements/1.1/"
   xmlns:cc="http://creativecommons.org/ns#"
   xmlns:rdf="http://www.w3.org/1999/02/22-rdf-syntax-ns#"
   xmlns:svg="http://www.w3.org/2000/svg"
   xmlns="http://www.w3.org/2000/svg"
   xmlns:sodipodi="http://sodipodi.sourceforge.net/DTD/sodipodi-0.dtd"
   xmlns:inkscape="http://www.inkscape.org/namespaces/inkscape"
   version="1.0"
   width="16"
   height="16"
   id="svg3187"
   inkscape:version="0.48.0 r9654"
   sodipodi:docname="weather-clouds.svg">
  <metadata
     id="metadata10">
    <rdf:RDF>
      <cc:Work
         rdf:about="">
        <dc:format>image/svg+xml</dc:format>
        <dc:type
           rdf:resource="http://purl.org/dc/dcmitype/StillImage" />
        <dc:title></dc:title>
      </cc:Work>
    </rdf:RDF>
  </metadata>
  <sodipodi:namedview
     pagecolor="#ffffff"
     bordercolor="#666666"
     borderopacity="1"
     objecttolerance="10"
     gridtolerance="10"
     guidetolerance="10"
     inkscape:pageopacity="0"
     inkscape:pageshadow="2"
     inkscape:window-width="1280"
     inkscape:window-height="753"
     id="namedview8"
     showgrid="false"
     inkscape:zoom="13.227273"
     inkscape:cx="-0.49140893"
     inkscape:cy="11.793814"
     inkscape:window-x="0"
     inkscape:window-y="24"
     inkscape:window-maximized="1"
     inkscape:current-layer="svg3187" />
  <defs
     id="defs3189" />
  <path
     inkscape:connector-curvature="0"
     d="M 12.454801,4.54523 12.9497,4.0502499 M 3.6159,4.61593 3.0503,4.0502499 M 1,9 2,9 m 12,0 1,0 M 8,3.0000001 8,2"
     id="path2492-2"
     style="opacity:0.3;fill:none;stroke:#000000;stroke-width:2;stroke-linecap:round;stroke-linejoin:miter;stroke-miterlimit:4;stroke-opacity:1;stroke-dasharray:none;stroke-dashoffset:0;marker:none;visibility:visible;display:inline;overflow:visible;enable-background:accumulate" />
  <path
     inkscape:connector-curvature="0"
     d="m 8,5 c -2.2091289,-1e-7 -4,1.790862 -4,4 0,0.321651 0.053307,0.637821 0.125,0.9375 0.1262532,-0.155545 0.2519525,-0.292491 0.40625,-0.40625 0.5061711,-0.373185 1.1437957,-0.5625 1.8125,-0.5625 0.29324,0 0.537796,0.143885 0.8125,0.21875 C 7.900192,8.47798 8.857704,7.96875 10,7.96875 c 0.703605,0 1.356392,0.169857 1.9375,0.46875 C 11.663873,6.494925 10.018047,5 8,5 z m 2,4 C 8.873696,9 7.908797,9.53126 7.395833,10.296875 7.106987,10.116672 6.738133,10 6.333333,10 c -0.9199996,0 -1.6666663,0.56 -1.6666664,1.25 0,0.154963 0.03534,0.300522 0.1041667,0.437499 C 3.7244948,12.03814 3,12.832015 3,13.749999 3,14.996499 4.338,16 6,16 l 6,0 c 1.662,0 3,-1.003501 3,-2.250001 0,-0.987336 -0.84582,-1.820516 -2.020834,-2.124999 0.0026,-0.04271 0.02083,-0.08175 0.02083,-0.125 0,-1.38 -1.344,-2.5 -3,-2.5 z"
     id="path2876-6-6-4-0-6"
     style="opacity:0.3;fill:#000000;fill-opacity:1;fill-rule:nonzero;stroke:none;stroke-width:11.49051189;marker:none;visibility:visible;display:inline;overflow:visible;enable-background:accumulate" />
  <path
     d="M 12.454801,3.545229 12.9497,3.0502489 M 3.6159,3.615929 3.0503,3.0502489 M 1,7.999999 l 1,0 m 12,0 1,0 M 8,1.9999991 8,0.999999"
     id="path2492"
     style="fill:none;stroke:#dfdbd2;stroke-width:2;stroke-linecap:round;stroke-linejoin:miter;stroke-miterlimit:4;stroke-opacity:1;stroke-dasharray:none;stroke-dashoffset:0;marker:none;visibility:visible;display:inline;overflow:visible;enable-background:accumulate"
     inkscape:connector-curvature="0" />
  <path
     d="M 8,3.9999991 C 5.7908711,3.999999 4,5.790861 4,7.999999 4,8.32165 4.053307,8.63782 4.125,8.937499 4.2512532,8.781954 4.3769525,8.645008 4.53125,8.531249 c 0.5061711,-0.373185 1.1437957,-0.5625 1.8125,-0.5625 0.29324,0 0.537796,0.143885 0.8125,0.21875 C 7.900192,7.477979 8.857704,6.968749 10,6.968749 c 0.703605,0 1.356392,0.169857 1.9375,0.46875 C 11.663873,5.494924 10.018047,3.9999991 8,3.9999991 z m 2,3.9999999 c -1.126304,0 -2.091203,0.53126 -2.604167,1.296875 -0.288846,-0.180203 -0.6577,-0.296875 -1.0625,-0.296875 -0.9199996,0 -1.6666663,0.56 -1.6666664,1.25 0,0.154963 0.03534,0.300522 0.1041667,0.437499 C 3.7244948,11.038139 3,11.832014 3,12.749998 c 0,1.2465 1.338,2.250001 3,2.250001 l 6,0 c 1.662,0 3,-1.003501 3,-2.250001 0,-0.987336 -0.84582,-1.820516 -2.020834,-2.124999 0.0026,-0.04271 0.02083,-0.08175 0.02083,-0.125 0,-1.38 -1.344,-2.5 -3,-2.5 z"
     id="path2876-6-6-4-0"
     style="fill:#dfdbd2;fill-opacity:1;fill-rule:nonzero;stroke:none;stroke-width:11.49051189;marker:none;visibility:visible;display:inline;overflow:visible;enable-background:accumulate"
     inkscape:connector-curvature="0" />
</svg>

<?xml version="1.0" encoding="UTF-8" standalone="no"?>
<!-- Created with Inkscape (http://www.inkscape.org/) -->
<svg
   xmlns:dc="http://purl.org/dc/elements/1.1/"
   xmlns:cc="http://creativecommons.org/ns#"
   xmlns:rdf="http://www.w3.org/1999/02/22-rdf-syntax-ns#"
   xmlns:svg="http://www.w3.org/2000/svg"
   xmlns="http://www.w3.org/2000/svg"
   xmlns:sodipodi="http://sodipodi.sourceforge.net/DTD/sodipodi-0.dtd"
   xmlns:inkscape="http://www.inkscape.org/namespaces/inkscape"
   version="1.0"
   width="16"
   height="16"
   id="svg3187"
   sodipodi:version="0.32"
   inkscape:version="0.46"
   sodipodi:docname="weather-clouds.svg"
   inkscape:output_extension="org.inkscape.output.svg.inkscape">
  <metadata
     id="metadata20">
    <rdf:RDF>
      <cc:Work
         rdf:about="">
        <dc:format>image/svg+xml</dc:format>
        <dc:type
           rdf:resource="http://purl.org/dc/dcmitype/StillImage" />
      </cc:Work>
    </rdf:RDF>
  </metadata>
  <sodipodi:namedview
     inkscape:window-height="781"
     inkscape:window-width="1440"
     inkscape:pageshadow="2"
     inkscape:pageopacity="0.0"
     guidetolerance="10.0"
     gridtolerance="10.0"
     objecttolerance="10.0"
     borderopacity="1.0"
     bordercolor="#666666"
     pagecolor="#ffffff"
     id="base"
     showgrid="false"
     inkscape:zoom="31.125"
     inkscape:cx="3.0200803"
     inkscape:cy="8"
     inkscape:window-x="0"
     inkscape:window-y="24"
     inkscape:current-layer="svg3187" />
  <defs
     id="defs3189">
    <inkscape:perspective
       sodipodi:type="inkscape:persp3d"
       inkscape:vp_x="0 : 8 : 1"
       inkscape:vp_y="0 : 1000 : 0"
       inkscape:vp_z="16 : 8 : 1"
       inkscape:persp3d-origin="8 : 5.3333333 : 1"
       id="perspective22" />
  </defs>
  <path
     id="path2476"
     style="opacity:0.59999999999999998;fill:none;stroke:#3a3935;stroke-width:4;stroke-linecap:round;stroke-linejoin:miter;marker:none;stroke-miterlimit:4;stroke-dasharray:none;stroke-dashoffset:0;stroke-opacity:1;visibility:visible;display:inline;overflow:visible;enable-background:accumulate"
     d="M 12.454801,3.5452299 L 12.9497,3.0502498M 3.6159,3.6159299 L 3.0503,3.0502498M 1,7.9999998 L 2,8M 14,8 L 15,7.9999998M 8,2 L 8,0.9999999" />
  <path
     id="path3183"
     style="opacity:0.59999999999999998;fill:none;fill-opacity:1;fill-rule:nonzero;stroke:#3a3935;stroke-width:1.00000024000000010;stroke-linecap:round;stroke-linejoin:miter;marker:none;marker-start:none;marker-mid:none;marker-end:none;stroke-miterlimit:4;stroke-dasharray:none;stroke-dashoffset:0;stroke-opacity:1;visibility:visible;display:inline;overflow:visible;enable-background:accumulate"
     d="M 12.500033,7.9999686 C 12.500033,5.5146768 10.485314,3.49995 8.0000326,3.49995 C 5.5147511,3.49995 3.5000323,5.5146768 3.5000323,7.9999686 C 3.5000323,10.48526 5.5147511,12.499987 8.0000326,12.499987 C 10.485314,12.499987 12.500033,10.48526 12.500033,7.9999686 L 12.500033,7.9999686 zM 10.024748,7.5001268 C 8.8777273,7.4903313 7.8258076,8.0513405 7.2450942,8.798942 C 6.2209806,8.2539438 4.7166471,8.7298311 4.3344286,9.6175591 C 4.0220592,10.036805 4.5724177,10.589613 3.8239175,10.755039 C 2.5426522,11.487067 2.1195964,12.951826 2.8734511,14.039867 C 3.477778,14.990261 4.8487585,15.571936 6.1998073,15.492835 C 8.2464718,15.487836 10.293777,15.502961 12.340031,15.485044 C 14.036664,15.41094 15.490043,14.220974 15.497409,12.897197 C 15.554153,11.845589 14.673015,10.843008 13.445861,10.430787 C 13.482826,9.0849669 12.229871,7.7080911 10.461059,7.5238742 C 10.316574,7.5080177 10.170658,7.5001201 10.024748,7.5001268 z" />
  <path
     id="path2492"
     style="fill:none;stroke:#eae3d1;stroke-width:2;stroke-linecap:round;stroke-linejoin:miter;marker:none;stroke-miterlimit:4;stroke-dasharray:none;stroke-dashoffset:0;stroke-opacity:1;visibility:visible;display:inline;overflow:visible;enable-background:accumulate;fill-opacity:1"
     d="M 12.454801,3.5452299 L 12.9497,3.0502498M 3.6159,3.6159299 L 3.0503,3.0502498M 1,7.9999998 L 2,8M 14,8 L 15,7.9999998M 8,2 L 8,0.9999999" />
  <path
     id="path2876-6-6-4-0"
     style="fill:#eae3d1;fill-opacity:1;fill-rule:nonzero;stroke:none;stroke-width:11.49051189000000051;stroke-linecap:round;stroke-linejoin:miter;marker:none;marker-start:none;marker-mid:none;marker-end:none;stroke-miterlimit:4;stroke-dasharray:none;stroke-dashoffset:0;stroke-opacity:1;visibility:visible;display:inline;overflow:visible;enable-background:accumulate"
     d="M 8,4 C 5.7908711,3.9999999 4,5.7908616 4,8 C 4,8.3216506 4.0533067,8.6378205 4.125,8.9375 C 4.2512532,8.7819549 4.3769525,8.6450091 4.53125,8.53125 C 5.0374211,8.1580648 5.6750457,7.9687501 6.34375,7.96875 C 6.6369896,7.96875 6.8815455,8.1126346 7.15625,8.1875 C 7.9001923,7.4779801 8.8577039,6.96875 10,6.96875 C 10.703605,6.96875 11.356392,7.1386072 11.9375,7.4375 C 11.663873,5.494925 10.018047,4 8,4 zM 9.9999996,8 C 8.8736959,8 7.9087972,8.5312601 7.3958333,9.2968749 C 7.1069868,9.1166722 6.7381333,9.0000001 6.3333333,9.0000001 C 5.4133334,9.0000001 4.6666667,9.5600001 4.6666666,10.25 C 4.6666666,10.404963 4.7020064,10.550522 4.7708333,10.687499 C 3.7244948,11.03814 3,11.832015 3,12.749999 C 3,13.996499 4.338,15 6,15 L 12,15 C 13.662,15 15,13.996499 15,12.749999 C 15,11.762663 14.15418,10.929483 12.979166,10.625 C 12.981776,10.582287 13,10.543251 13,10.5 C 13,9.12 11.656,8 9.9999996,8 z" />
</svg>
